cutejava-front/src/assets/icons/svg/run.svg

<?xml version="1.0" standalone="no"?><!DOCTYPE svg PUBLIC "-//W3C//DTD SVG 1.1//EN" "http://www.w3.org/Graphics/SVG/1.1/DTD/svg11.dtd"><svg t="1555468036837" class="icon" style="" viewBox="0 0 1024 1024" version="1.1" xmlns="http://www.w3.org/2000/svg" p-id="1314" xmlns:xlink="http://www.w3.org/1999/xlink" width="200" height="200"><defs><style type="text/css"></style></defs><path d="M977.066667 352 977.066667 352l-234.666667 213.333333 0 0C736 571.733333 725.333333 576 714.666667 576c-10.666667 0-19.2-4.266667-25.6-8.533333l0 0-192-149.333333 0 0c-10.666667-8.533333-17.066667-19.2-17.066667-34.133333 0-23.466667 19.2-42.666667 42.666667-42.666667 10.666667 0 19.2 4.266667 25.6 8.533333l0 0 164.266667 128 209.066667-189.866667 0 0c8.533333-6.4 17.066667-10.666667 27.733333-10.666667 23.466667 0 42.666667 19.2 42.666667 42.666667C992 332.8 985.6 343.466667 977.066667 352zM522.666667 256c-70.4 0-128-57.6-128-128 0-70.4 57.6-128 128-128s128 57.6 128 128C650.666667 198.4 593.066667 256 522.666667 256zM522.666667 85.333333c-23.466667 0-42.666667 19.2-42.666667 42.666667s19.2 42.666667 42.666667 42.666667 42.666667-19.2 42.666667-42.666667S546.133333 85.333333 522.666667 85.333333zM396.8 539.733333l234.666667 149.333333 0 0c12.8 8.533333 19.2 21.333333 19.2 36.266667 0 21.333333-17.066667 40.533333-38.4 42.666667l0 0-179.2 19.2L166.4 1013.333333l0 0C157.866667 1019.733333 149.333333 1024 138.666667 1024c-23.466667 0-42.666667-19.2-42.666667-42.666667 0-8.533333 2.133333-14.933333 6.4-21.333333l0 0 234.666667-405.333333 0 0c6.4-12.8 21.333333-21.333333 36.266667-21.333333C381.866667 533.333333 390.4 535.466667 396.8 539.733333L396.8 539.733333zM298.666667 789.333333l89.6-76.8 0 0c6.4-4.266667 14.933333-8.533333 23.466667-8.533333l0 0 72.533333-8.533333-96-59.733333L298.666667 789.333333zM302.933333 360.533333 302.933333 360.533333 138.666667 426.666667l78.933333 128 0 0c4.266667 6.4 6.4 14.933333 6.4 23.466667 0 23.466667-19.2 42.666667-42.666667 42.666667-14.933333 0-27.733333-8.533333-36.266667-19.2l0 0-106.666667-170.666667 0 0c-4.266667-6.4-6.4-14.933333-6.4-23.466667 0-17.066667 10.666667-34.133333 27.733333-40.533333l0 0 213.333333-85.333333c0 0 0 0 0 0l0 0 0 0c4.266667-2.133333 10.666667-2.133333 14.933333-2.133333 23.466667 0 42.666667 19.2 42.666667 42.666667C330.666667 337.066667 320 354.133333 302.933333 360.533333z" p-id="1315" fill="#e6e6e6"></path></svg>

<svg class="icon" viewBox="0 0 1024 1024" xmlns="http://www.w3.org/2000/svg" width="200" height="200"><defs><style/></defs><path d="M977.067 352L742.4 565.333C736 571.733 725.333 576 714.667 576c-10.667 0-19.2-4.267-25.6-8.533l-192-149.334C486.4 409.6 480 398.933 480 384c0-23.467 19.2-42.667 42.667-42.667 10.666 0 19.2 4.267 25.6 8.534l164.266 128L921.6 288c8.533-6.4 17.067-10.667 27.733-10.667C972.8 277.333 992 296.533 992 320c0 12.8-6.4 23.467-14.933 32zm-454.4-96c-70.4 0-128-57.6-128-128s57.6-128 128-128 128 57.6 128 128-57.6 128-128 128zm0-170.667C499.2 85.333 480 104.533 480 128s19.2 42.667 42.667 42.667 42.666-19.2 42.666-42.667-19.2-42.667-42.666-42.667zM396.8 539.733l234.667 149.334c12.8 8.533 19.2 21.333 19.2 36.266 0 21.334-17.067 40.534-38.4 42.667l-179.2 19.2L166.4 1013.333c-8.533 6.4-17.067 10.667-27.733 10.667C115.2 1024 96 1004.8 96 981.333c0-8.533 2.133-14.933 6.4-21.333l234.667-405.333c6.4-12.8 21.333-21.334 36.266-21.334 8.534 0 17.067 2.134 23.467 6.4zm-98.133 249.6l89.6-76.8c6.4-4.266 14.933-8.533 23.466-8.533l72.534-8.533-96-59.734-89.6 153.6zm4.266-428.8l-164.266 66.134 78.933 128c4.267 6.4 6.4 14.933 6.4 23.466 0 23.467-19.2 42.667-42.667 42.667-14.933 0-27.733-8.533-36.266-19.2L38.4 430.933c-4.267-6.4-6.4-14.933-6.4-23.466 0-17.067 10.667-34.134 27.733-40.534L273.067 281.6c4.266-2.133 10.666-2.133 14.933-2.133 23.467 0 42.667 19.2 42.667 42.666 0 14.934-10.667 32-27.734 38.4z"/></svg>
